X:383
%%etbk:tnset id:351,pos:1,rep:3x,ant:
%%etbk:wsite http://www.thesession.org/tunes/display/48
%%etbk:color #e6ffe6
%%etbk:pldat 2016-08-06T15:44,2016-07-23T16:12,2016-07-22T16:37,2015-04-22T15:12,2015-04-08T18:06,2015-02-03T16:43,2014-12-20T13:30,2014-12-15T15:05,2014-12-14T14:56,2014-12-10T15:10,2014-12-06T15:01,2014-12-04T18:58,2014-12-04T17:54,2014-12-02T16:41,2014-11-30T14:34,2014-11-26T15:43,2014-11-25T18:04,2014-11-22T14:09,2014-11-17T18:05,2014-11-15T14:56,2014-11-13T18:05,2014-11-12T18:39,2014-11-10T18:08,2014-11-09T15:14,2014-10-11T15:03,2014-10-07T15:09,2014-10-05T16:17,2014-04-27T15:20,2014-04-12T15:52,2013-11-13T16:01
T: Hardiman The Fiddler
Z: Piano Box Version by Martin Fleischmann
H: Created 2013-02-19 /  Last Modified 2016-07-23
M: 9/8
L: 1/8
R: slip jig
K: Dmix
|: "D"!2!A2!1!G !3!FDE F2!4!G | !2!A2A {c}AGA !4!cAG | !2!A2!1!G !3!FDE F2!4!G | !2!A!4!dd ded !3!c!2!A!1!G:|
 "D"!2!A!4!d!3!d d2e !5!f!1!A!5!f | !1!A!4!dd ded !3!c!2!A!1!G | !2!A!4!d!3!d d2!4!e !3!f2!4!g | !5!agf !4!g!2!e!1!d !3!c!2!A!1!G |
!2!A!4!d!3!d d2e !5!f2f | !1!A!4!dd ded !3!c!2!A!1!G | !4!dcA !3!c!1!d!2!e !3!f2!4!g | !5!agf !4!ged !3!c!2!A!1!G ||


